X: 31097
T: Paddy Fahey's
R: reel
M: 4/4
K: Cmajor
G AB|c2 GF EGcA|_B2 fB FBfB|c2 Gc EcGE|F~_B,3 =BcdB|
G~c3 GcEc|_B2 FB DBfB|gfdc (3Bcd GE|F~_B,3 =BcdB||
c3 a gceg|fefd BGAB|c2 gc BcGc|FcEF DEFD|
g2 ^fa gceg|=fede fagf|e~c3 GcAc|BGFD C2 EG||

